icons/bookmark-slash-fill-16.svg

<svg width="16" height="16" viewBox="0 0 16 16">
  <path
    d="M1.18987 1.1426C0.854386 0.899656 0.385477 0.974682 0.142536 1.31017C-0.100404 1.64566 -0.0253782 2.11457 0.31011 2.35751L2.99999 4.30536V14.2501C2.99999 14.5354 3.16191 14.7961 3.41772 14.9225C3.67353 15.0489 3.97891 15.0192 4.20558 14.8459L7.99999 11.9443L11.7944 14.8459C12.0211 15.0192 12.3265 15.0489 12.5823 14.9225C12.8381 14.7961 13 14.5354 13 14.2501V11.5468L14.8101 12.8575C15.1456 13.1005 15.6145 13.0255 15.8575 12.69C16.1004 12.3545 16.0254 11.8856 15.6899 11.6426L12.6963 9.47484C12.6917 9.47144 12.6871 9.4681 12.6825 9.46481L4.19628 3.31965C4.19172 3.31626 4.18711 3.31293 4.18247 3.30965L1.18987 1.1426Z"
  />
  <path
    d="M4.12436 1.34601C4.19115 1.13976 4.38324 1.00006 4.60003 1.00006H11.8334C12.4777 1.00006 13 1.52239 13 2.16673V7.21673C13 7.40457 12.8947 7.57657 12.7275 7.66201C12.5602 7.74745 12.3591 7.73192 12.2069 7.6218L4.30691 1.90513C4.13128 1.77804 4.05756 1.55225 4.12436 1.34601Z"
  />
</svg>

<svg xmlns="http://www.w3.org/2000/svg" width="16" height="16" viewBox="0 0 16 16"><path d="M1.19 1.143a.75.75 0 1 0-.88 1.215L3 4.305v9.945a.75.75 0 0 0 1.206.596L8 11.944l3.794 2.902A.75.75 0 0 0 13 14.25v-2.703l1.81 1.31a.75.75 0 1 0 .88-1.214l-2.994-2.168a1.09 1.09 0 0 0-.014-.01L4.196 3.32a.712.712 0 0 0-.014-.01L1.19 1.143Zm2.934.203A.5.5 0 0 1 4.6 1h7.233C12.478 1 13 1.522 13 2.167v5.05a.5.5 0 0 1-.793.405l-7.9-5.717a.5.5 0 0 1-.183-.559Z"/></svg>
